documentation/ag-grid-docs/public/example/inventory/delete.svg

<svg fill="none" height="24" viewBox="0 0 24 24" width="24" xmlns="http://www.w3.org/2000/svg"><g stroke="#686868" stroke-linecap="round" stroke-linejoin="round" stroke-width="2"><path d="m3 6h18"/><path d="m19 6v14c0 1-1 2-2 2h-10c-1 0-2-1-2-2v-14"/><path d="m8 6v-2c0-1 1-2 2-2h4c1 0 2 1 2 2v2"/></g></svg>

<svg width="24" height="24" viewBox="0 0 24 24" fill="none" xmlns="http://www.w3.org/2000/svg">
<path d="M3 6H21" stroke="#686868" stroke-width="2" stroke-linecap="round" stroke-linejoin="round"/>
<path d="M19 6V20C19 21 18 22 17 22H7C6 22 5 21 5 20V6" stroke="#686868" stroke-width="2" stroke-linecap="round" stroke-linejoin="round"/>
<path d="M8 6V4C8 3 9 2 10 2H14C15 2 16 3 16 4V6" stroke="#686868" stroke-width="2" stroke-linecap="round" stroke-linejoin="round"/>
</svg>
